!!!COM: Haydn, Franz Joseph
!!!OPR: String Quartet in B-flat Major
!!!ONM: Opus 71, No. 1
!!!OTL: Affettuoso 
!!!OMV: 1
!!!SCT: H III:69
!!!SCA: Thematisch-bibliographisches Werkevererzeichnis (A. van Hoboken)
!!!YOR: Trautwein Edition
!!!EED: Frances Bennion
!!!ENC: Frances Bennion
!!!CDT: 1732/3/31/-1809/5/31/
!!!OCY: Österreich
!!!YEC: Copyright (c) 1994, 2000 Center for Computer Assisted Research in the Humanities
!!!YEM: Rights to all derivative editions reserved.
!!!YEM: Refer to licensing agreement for further details.
!!!YEN: United States of America
**kern	**kern	**kern	**kern
*k[b-e-]	*k[b-e-]	*k[b-e-]	*k[b-e-]
*B-:	*B-:	*B-:	*B-:
*clefF	*clefF	*clefC3	*clefF4
*M4/4	*M4/4	*M4/4	*M4/4
*tb24	*tb24	*tb24	*tb24
=1	=1	=1	=1
8ff 8b- 8d	8dd 8f	8f 8B-	8BB-
8r	8r	8r	8r
8ee- 8g	8cc 8g	8g 8B-	8E-
8r	8r	8r	8r
8dd 8f	8b- 8d	8f 8B-	8F
8r	8r	8r	8r
8e- 8a 8c	8e- 8a 8c	8c 8e-	8FF
8r	8r	8r	8r
=2	=2	=2	=2
4d 4B- 4b-	4B- 4d 4b-	4B- 4d	4BB- 4D
2.r	2.r	2.r	2.r
=3	=3	=3	=3
2ff	8B-	8D	4BB-
.	8r	8r	.
.	8d	8B-	2.r
.	8r	8r	.
4dd	8f	8d	.
.	4.r	4.r	.
4b-	.	.	.
=4	=4	=4	=4
4.bb-	8f	8D	4BB-
.	8r	8r	.
.	8d	8B-	2.r
16ddd	8r	8r	.
16bb-	.	.	.
4ff	8f	8d	.
.	4r	4.r	.
8r	.	.	.
8dd	8f	.	.
=5	=5	=5	=5
4cc	4e-	2r	1FF
4b	4d	.	.
4cc	4e-	4A	.
4a	4c	4e-	.
=6	=6	=6	=6
8b-	4d	4d	4BB-
8r	.	.	.
8dd	2r	2.r	2.r
8r	.	.	.
4ff	.	.	.
8r	8r	.	.
8dd	8f	.	.
=7	=7	=7	=7
4cc	4e-	2.A	1FF
4b	4d	.	.
4cc	4e-	.	.
4a	4c	4E-	.
=8	=8	=8	=8
4b- 4d	8B-	16D	8BB-
.	.	16F	.
.	8f 8d	16B-	8BB-
.	.	16d	.
8r	8f 8d	8f	8BB-
16dd	8f 8d	8f	8BB-
16b-	.	.	.
16a	8e- 8c	8f	8BB-
16b-	.	.	.
16a	8e- 8c	8f	8BB-
16b-	.	.	.
16a	8c 8e-	8f	8BB-
16b-	.	.	.
16cc	8e- 8c	8f	8BB-
16a	.	.	.
=9	=9	=9	=9
4b-	8d	16D	8BB-
.	.	16F	.
.	8d 8b-	16B-	8B-
.	.	16d	.
8r	8d 8b-	8f	8BB-
16ff	8b- 8d	8f	8BB-
16ddd	.	.	.
16ccc	8a 8e-	8f	8BB-
16bb	.	.	.
16ccc	8a 8e-	8f	8BB-
16bb	.	.	.
16ccc	8a 8e-	8f	8BB-
16eee-	.	.	.
16ccc	8e- 8cc	8f	8BB-
16aa	.	.	.
=10	=10	=10	=10
4bb-	8d 8b-	8f	8BB-
.	8f	8d	8B-
8r	8f	8d	8B-
16dd	8f	8d	8B-
16b-	.	.	.
16a	2g-	2e-	2B-
16b-	.	.	.
16a	.	.	.
16b-	.	.	.
16a	.	.	.
16b-	.	.	.
16cc	.	.	.
16a	.	.	.
=11	=11	=11	=11
4b-	8f	8d	8BB-
.	8d	8B-	8B-
8r	8f	8d	8B-
16ff	8f	8d	8B-
16ddd	.	.	.
16ccc	2g-	2e-	2B-
16bb	.	.	.
16ccc	.	.	.
16bb	.	.	.
16ccc	.	.	.
16eee-	.	.	.
16ccc	.	.	.
16aa	.	.	.
=12	=12	=12	=12
8bb-	8f	8d	8BB-
4bb-	8f	8d	8B-
.	8f	8d	8B-
16ddd	8f	8d	8B-
16bb-	.	.	.
8aa	8f	8e-	8c
4aa	8f	8e-	8c
.	8f	8e-	8c
16ccc	8f	8e-	8c
16aa	.	.	.
=13	=13	=13	=13
8bb-	8f	8d	8B-
4bb-	4f	4d	8B-
.	.	.	8B-
16ddd	8f	8d	8B-
16bb-	.	.	.
8aa	8e-	8c	8F
4aa	4e-	4c	8F
.	.	.	8F
16ccc	8e-	8c	8F
16aa	.	.	.
=14	=14	=14	=14
8bb-	8d	8B-	4D
4ddd	4B-	4dd	.
.	.	.	4DD
8ff#	4B-	8f#	.
8gg	.	8g	4EE-
4bb-	4B-	4b-	.
.	.	.	4FF
8dd	[8B-	8d	.
=15	=15	=15	=15
8cc	8B-]	8c	4GG
4bb-	4B-	4b-	.
.	.	.	4FF
8cc	4B-	8c	.
8dd-	.	8d-	4EE
4bb-	4B-	4b-	.
.	.	.	4E
8b-	8d-	8B-	.
=16	=16	=16	=16
8a	4c	4A	4F
8ff	.	.	.
8ff	2r	2r	2.r
8ff	.	.	.
8ff	.	.	.
8ff	.	.	.
8ff	8r	8r	.
8ff	8dd	8b	.
=17	=17	=17	=17
[1ff	4ee-	4cc	1r
.	4dd	4b	.
.	4ee-	4cc	.
.	8r	8r	.
.	8b	8d	.
=18	=18	=18	=18
2..ff]	4cc	4e-	2..r
.	4b	4d	.
.	[2cc	[2e-	.
8aa-	.	.	8F
=19	=19	=19	=19
4gg-	1cc_	1e-_	4A
4ff	.	.	4B-
4.gg-	.	.	4.A
8ff	.	.	8B-
=20	=20	=20	=20
1gg-	1cc]	1e-]	1A
=21	=21	=21	=21
2ff	8d	8D	4BB-
.	8r	8r	.
.	8d	8B-	2.r
.	8r	8r	.
4dd	8f	8d	.
.	4.r	4.r	.
4b-	.	.	.
=22	=22	=22	=22
4.bb-	8f	8D	4BB-
.	8r	8r	.
.	8d	8B-	2.r
16ddd	8r	8r	.
16bb-	.	.	.
4ff	8f	8d	.
.	4r	4.r	.
8r	.	.	.
8dd	8f	.	.
=23	=23	=23	=23
4cc	4e-	2.A	1FF
4b	4d	.	.
4cc	4e-	.	.
4a	4c	4e-	.
=24	=24	=24	=24
8b-	4d	4d	4BB-
8r	.	.	.
8dd	2r	2.r	2.r
8r	.	.	.
4ff	.	.	.
8r	8r	.	.
8dd	8f	.	.
=25	=25	=25	=25
4cc	4e-	2.A	2.F
4b	4d	.	.
4cc	4e-	.	.
4a	4c	4e-	4F#
=26	=26	=26	=26
2.b-	4B-	4d	2.G
.	4A	4c#	.
.	4B-	4d	.
4a-	4f	4B	4D
=27	=27	=27	=27
2a-	2f	4c	2.E-
.	.	4B	.
4g	4e-	4c	.
4g	[4d	[4B-	4E
=28	=28	=28	=28
4f	4d]	4B-]	4F
4e	2c	2B-	4G
4f	.	.	4F
4g	4c	4B-	4E
=29	=29	=29	=29
2.f	1c	2B-	2F
.	.	4A	2FF
4A	.	4E-	.
=30	=30	=30	=30
2B-	16B-	16D	2BB-
.	16d	16B-	.
.	16f	16d	.
.	16d	16B-	.
.	16f	16d	.
.	16d	16B-	.
.	16f	16d	.
.	16d	16B-	.
4d	16B-	16D	2r
.	16d	16B-	.
.	16f	16d	.
.	16d	16B-	.
4f	16f	16d	.
.	16d	16B-	.
.	16f	16d	.
.	16d	16B-	.
=31	=31	=31	=31
4b-	16d	16f	1r
.	16f	16d	.
.	16b-	16B-	.
.	16f	16d	.
4dd	16b-	16B-	.
.	16f	16d	.
.	16b-	16B-	.
.	16f	16d	.
4ff	16d	16F	.
.	16f	16d	.
.	16b-	16B-	.
.	16f	16d	.
4bb-	16b-	16B-	.
.	16f	16d	.
.	16b-	16B-	.
.	16f	16d	.
=32	=32	=32	=32
[1eee	16g	16B-	2CC
.	16b-	16g	.
.	16cc	16b-	.
.	16b-	16g	.
.	16cc	16b-	.
.	16b-	16g	.
.	16cc	16b-	.
.	16b-	16g	.
.	16g	16c	4EE
.	16b-	16g	.
.	16cc	16b-	.
.	16b-	16g	.
.	16cc	16b-	4GG
.	16b-	16g	.
.	16cc	16b-	.
.	16b-	16g	.
=33	=33	=33	=33
8eee]	16g	16e	4C
.	16b-	16g	.
4eee	16cc	16b-	.
.	16b-	16g	.
.	16g	16b-	4E
.	16b-	16g	.
4eee	16cc	16b-	.
.	16b-	16g	.
.	16g	16c	4G
.	16b-	16g	.
4eee	16cc	16b-	.
.	16b-	16g	.
.	16g	16b-	4c
.	16b-	16g	.
8ccc	16cc	16b-	.
.	16b-	16g	.
=34	=34	=34	=34
1fff	16f	16A	8FF
.	16a	16f	.
.	16cc	16a	8AA
.	16a	16f	.
.	16cc	16a	8C
.	16a	16f	.
.	16cc	16a	8E
.	16a	16f	.
.	16f	16A	8F
.	16a	16f	.
.	16cc	16a	8A
.	16a	16f	.
.	16cc	16a	8c
.	16a	16f	.
.	16cc	16a	8f
.	16a	16f	.
=35	=35	=35	=35
1bb	16f	16d	8DD
.	16g	16f	.
.	16b	16g	8FF
.	16g	16f	.
.	16f	16d	8BB
.	16g	16f	.
.	16f	16d	8D
.	16g	16f	.
.	16f	16d	8F
.	16g	16f	.
.	16b	16g	8B
.	16g	16f	.
.	16f	16d	8d
.	16g	16f	.
.	16f	16d	8D
.	16g	16f	.
=36	=36	=36	=36
2ccc	16e	16c	8CC
.	16g	16e	.
.	16cc	16g	8C
.	16g	16e	.
.	16e	16c	8c
.	16g	16e	.
.	16e	16c	8C
.	16g	16e	.
4.fff	16f	16d	8CC
.	16g	16f	.
.	16b	16g	8C
.	16g	16f	.
.	16f	16d	8c
.	16g	16f	.
8bb	16f	16d	8C
.	16g	16f	.
=37	=37	=37	=37
8ccc	8e	4e	4CC
16cc	16c	.	.
16dd	16d	.	.
16ee	16e	4.r	4.r
16ff	16f	.	.
16gg	16g	.	.
16ee	16e	.	.
8cc	8c	.	.
16c	16c	16c	16C
16d	16d	16d	16D
16e	16e	16e	16E
16f	16f	16f	16F
16g	16g	16g	16G
16e	16e	16e	16E
=38	=38	=38	=38
4c	4c	4c	4C
4ccc	4cc	4cc	4c
4c	4c	4C	4CC
4r	4r	4r	4r
=39	=39	=39	=39
2ccc	2cc	8r	8r
.	.	8G	8E
.	.	8A	8F
.	.	8B-	8G
4aa	4a	8c	8A
.	.	8d	8B-
4ff	4f	8e	8c
.	.	8f	8d
=40	=40	=40	=40
2ddd	2dd	8r	8r
.	.	8A	8F#
.	.	8B-	8G
.	.	8c	8A
4bb-	4b-	8d	8B-
.	.	8e	8c
4gg	4g	8f	8d
.	.	8g	8e
=41	=41	=41	=41
8aa	2f	2a	4f
8cc#	.	.	.
8dd	.	.	2.r
8ee	.	.	.
8ff	4d	4f	.
8gg	.	.	.
8aa	4B-	4d	.
8bb-	.	.	.
=42	=42	=42	=42
8r	2g	2b-	1r
8dd#	.	.	.
8ee	.	.	.
8ff	.	.	.
8gg	4e	4g	.
8aa	.	.	.
8bb-	4c	4e	.
8ccc	.	.	.
=43	=43	=43	=43
2aa	4r	8f	8r
.	.	8e	8C#
.	2a	8f	8D
.	.	8c#	8E
4ff	.	4d	8F
.	.	.	8G
4dd	4f	4r	8A
.	.	.	8B-
=44	=44	=44	=44
2ddd	4d	8a	8r
.	.	8cc	8FF#
.	2dd	8b-	8GG
.	.	8f#	8AA
4bb-	.	4g	8BB-
.	.	.	8AA
4gg	4b-	4r	8BB-
.	.	.	8BB
=45	=45	=45	=45
8ff	1g	4r	1C
8ee	.	.	.
8aa	.	4E	.
8gg	.	.	.
8ff	.	4G	.
8ee	.	.	.
8dd	.	4B	.
8cc	.	.	.
=46	=46	=46	=46
2cc	8r	2c	1BB-
.	8e	.	.
.	8a	.	.
.	8g	.	.
4ee	8f	4G	.
.	8e	.	.
4gg	8d	4E	.
.	8c	.	.
=47	=47	=47	=47
2cc	8r	2c	1AA
.	8g	.	.
.	8b-	.	.
.	8a	.	.
4ff	8g	4A	.
.	8f	.	.
4aa	8e	4F	.
.	8f	.	.
=48	=48	=48	=48
[1cc	2c	8C	1BB-
.	.	8e	.
.	.	8a	.
.	.	8g	.
.	4e	8f	.
.	.	8e	.
.	4g	8d	.
.	.	8c	.
=49	=49	=49	=49
2cc_	4f	8r	2.AA
.	.	8e	.
.	2.r	8g	.
.	.	8f	.
8cc]	.	8e	.
8b-	.	8d	.
8a	.	8c	4BB-
8g	.	8B-	.
=50	=50	=50	=50
2.f	2.r	2.A	8C
.	.	.	8C#
.	.	.	8E
.	.	.	8D
.	.	.	2C
4g	4e	4B-	.
=51	=51	=51	=51
16f	8f	8A	8F
16a	.	.	.
16cc]	8r	8r	8r
16ff	.	.	.
16ee	8b- 8g	8c	8F
16gg	.	.	.
16ee	8r	8r	8r
16cc	.	.	.
16ff	8f 8a	8c	8F
16ccc	.	.	.
16aa	8r	8r	8r
16ff	.	.	.
16ee	8b- 8g	8e	8F
16gg	.	.	.
16ee	8r	8r	8r
16cc	.	.	.
=52	=52	=52	=52
16f	8f 8a	8f	8FF
16a	.	.	.
16cc	8r	8r	8r
16ff	.	.	.
16ee	8b- 8g	8c	8F
16gg	.	.	.
16ee	8r	8r	8r
16cc	.	.	.
16ff	8f 8a	8c	8F
16ccc	.	.	.
16aa	8r	8r	8r
16ff	.	.	.
16ee	8b- 8g	8e	8F
16gg	.	.	.
16ee	8r	8r	8r
16cc	.	.	.
=53	=53	=53	=53
4ff	16a	16f	1F
.	16cc	16a	.
.	16ff	16cc	.
.	16cc	16a	.
4aa	16a	16cc	.
.	16cc	16a	.
.	16a	16cc	.
.	16cc	16a	.
4ccc	16a	16f	.
.	16cc	16a	.
.	16ff	16cc	.
.	16cc	16a	.
4fff	16a	16cc	.
.	16cc	16a	.
.	16a	16cc	.
.	16cc	16a	.
=54	=54	=54	=54
2aaa	16b	16d	1D
.	16dd	16f	.
.	16ff	16b	.
.	16dd	16f	.
.	16b	16b	.
.	16dd	16f	.
.	16b	16b	.
.	16dd	16f	.
2bb	16b	16d	.
.	16dd	16f	.
.	16ff	16b	.
.	16dd	16f	.
.	16b	16b	.
.	16dd	16f	.
.	16b	16b	.
.	16dd	16f	.
=55	=55	=55	=55
4ccc	4cc	8c	4A 4C 4F
.	.	16A	.
.	.	16B-	.
2.r	4.r	16c	4r
.	.	16d	.
.	.	16e	.
.	.	16f	.
.	.	4c	4C 4A 4F
.	16a	.	.
.	16b-	.	.
.	16cc	4r	4r
.	16dd	.	.
.	16ee	.	.
.	16ff	.	.
=56	=56	=56	=56
8r	4cc	1r	4C 4A 4F
16aa	.	.	.
16bb-	.	.	.
16ccc	2.r	.	2.r
16ddd	.	.	.
16eee	.	.	.
16fff	.	.	.
8ccc	.	.	.
8aa	.	.	.
8ff	.	.	.
8cc	.	.	.
=57	=57	=57	=57
8b-	1e 1G	1B-	1C
8g	.	.	.
8e	.	.	.
8c	.	.	.
8B-	.	.	.
8G	.	.	.
8b-	.	.	.
8e	.	.	.
=58	=58	=58	=58
8r	8f	8A	8F
8f	8r	8r	8r
8r	8g	8e	8C
8g	8r	8r	8r
8r	8a	8f	8FF
8a	8r	8r	4.r
16r	8e	8c	.
16g	.	.	.
16f#	8r	8r	.
16g	.	.	.
=59	=59	=59	=59
16r	8f	4F	1r
16a	.	.	.
16g#	8r	.	.
16a	.	.	.
16r	8g	2.r	.
16b-	.	.	.
16a	8r	.	.
16b-	.	.	.
16cc	8a	.	.
16dd	.	.	.
16ee	4.r	.	.
16ff	.	.	.
16ee	.	.	.
16ff	.	.	.
16ee	.	.	.
16ff	.	.	.
=60	=60	=60	=60
2dd	2f	16F	2r
.	.	16G	.
.	.	16A	.
.	.	16B-	.
.	.	16A	.
.	.	16B-	.
.	.	16A	.
.	.	16B-	.
2ee	2g	4C	16GG
.	.	.	16AA
.	.	.	16BB-
.	.	.	16C
.	.	4c	16BB-
.	.	.	16C
.	.	.	16BB-
.	.	.	16C
=61	=61	=61	=61
16ff	8cc	8F	8AA
16cc	.	.	.
16b	8r	8r	8r
16cc	.	.	.
16gg	8cc	8b-	8E
16cc	.	.	.
16b	8r	8r	8r
16cc	.	.	.
16aa	8cc	8a	8F
16cc	.	.	.
16b	8r	8r	8r
16cc	.	.	.
16bb-	8cc	8e	8G
16gg	.	.	.
16ff	8r	8r	8r
16ee	.	.	.
=62	=62	=62	=62
8ccc	8cc	4f	4A
8aa	8ff	.	.
8ccc	8aa	4.r	4.r
8aa	8ff	.	.
4ccc	4aa	.	.
.	.	8a	8f
4r	4r	8cc	8a
.	.	8a	8f
=63	=63	=63	=63
8r	8r	4cc	4a
8ccc	8aa	.	.
8fff	8ff	2.r	2.r
8ccc	8aa	.	.
4fff	4ff	.	.
4r	4r	.	.
=64	=64	=64	=64
1ddd	1ff	1a-	1B
=65	=65	=65	=65
1gg	1ee	1b-	1c
=66	=66	=66	=66
4ff	8ff	8a	4F
.	16aa	16f	.
.	16gg	16e	.
2r	16ff	16d	2r
.	16ee	16c	.
.	16dd	16B-	.
.	16cc	16A	.
.	16b-	16G	.
.	16a	16F	.
.	16g	16E	.
.	16f	16D	.
8.bb-	16e	16C	4C
.	16g	16E	.
.	16a	16F	.
16ee	16b-	16G	.
=67	=67	=67	=67
8ff	4a	4F	8FF
16aa	.	.	16F
16gg	.	.	16E
16ff	2r	2r	16D
16ee	.	.	16C
16dd	.	.	16BB-
16cc	.	.	16AA
16b-	.	.	16GG
16a	.	.	16FF
16g	.	.	16EE
16f	.	.	16DD
16e	8.bb-	4g	8CC
16g	.	.	.
16a	.	.	8C
16b-	16ee	.	.
=68	=68	=68	=68
8a	8ff	8a	8FF
8r	8r	8r	8r
8cc 8gg 8e	8b- 8gg	8cc	8C
8r	8r	8r	8r
8aa 8f 8cc	8ff 8a	8a	8F
8r	8r	8r	8r
8eee	8bb- 8e 8cc	8g 8c	8c
8r	8r	8r	8r
=69	=69	=69	=69
4fff	4aa 4cc 4f	4a 4c 4f	4F
2.r	2.r	2.r	2.r
=70	=70	=70	=70
1r	2cc	1r	1r
.	4a	.	.
.	4f	.	.
=71	=71	=71	=71
1r	4.ff	8r	1e-
.	.	8a	.
.	.	8dd	.
.	16aa	8cc	.
.	16ff	.	.
.	4cc	8b-	.
.	.	8a	.
.	4r	8g	.
.	.	8f	.
=72	=72	=72	=72
2ff	8r	1b-	1d
.	8b-	.	.
.	8ee-	.	.
.	8dd	.	.
4dd	8cc	.	.
.	8b-	.	.
4b-	8a	.	.
.	8b-	.	.
=73	=73	=73	=73
4.bb-	[1f	8r	1A-
.	.	8d	.
.	.	8g	.
16ddd	.	8f	.
16bb-	.	.	.
4ff	.	8e-	.
.	.	8d	.
8r	.	8c	.
8dd	.	8B-	.
=74	=74	=74	=74
4cc	8f]	8r	1G
.	8f	8d	.
4b	8a-	8f	.
.	8g	8e-	.
4cc	8f	8d	.
.	8e-	8c	.
4dd	8d	8B	.
.	8b	8G	.
=75	=75	=75	=75
4ee-	4cc	2g	8r
.	.	.	8BB
2.r	2g	.	8C
.	.	.	8D
.	.	4e-	8E-
.	.	.	8F
.	4e-	4c	8G
.	.	.	8A
=76	=76	=76	=76
1r	8f	2a-	8r
.	8d	.	8BB-
.	8e-	.	8C
.	8f	.	8D
.	8e-	4f	8E-
.	8d	.	8F
.	8c	4d	8G
.	8B-	.	8A-
=77	=77	=77	=77
2bb-	8e-	8e-	4G
.	8r	8r	.
.	8g	8e-	2.r
.	8r	8r	.
4gg	8b-	8g	.
.	4.r	4.r	.
4ee-	.	.	.
=78	=78	=78	=78
4.eee-	8e-	8G	4EE-
.	8r	8r	.
.	8g	8e-	2.r
16ggg	8r	8r	.
16eee-	.	.	.
4bb-	8b-	8g	.
.	4r	4.r	.
8r	.	.	.
8gg	8b-	.	.
=79	=79	=79	=79
4ff	4a-	4r	1BB-
4ee	4g	4d-	.
4ff	4a-	4d	.
4dd	4f	4a-	.
=80	=80	=80	=80
8ee-	4g	4g	4E-
8r	.	.	.
8gg	2.r	2r	2.r
8r	.	.	.
4bb-	.	.	.
8r	.	8r	.
8gg	.	8b-	.
=81	=81	=81	=81
4ff	2.r	4a-	1BB-
4ee	.	4g	.
4ff	.	2a-	.
4dd	4cc-	.	.
=82	=82	=82	=82
4ee-	2.b-	2.g	4E-
4dd	.	.	2.r
4ee-	.	.	.
4dd-	4a-	4f	.
=83	=83	=83	=83
4cc	1g	1e	1r
4b	.	.	.
4cc	.	.	.
4bb-	.	.	.
=84	=84	=84	=84
4aa-	8a-	8f	8FF
.	8c	8A-	8F
8r	8c	8A-	8F
16ccc	8c	8A-	8F
16ff	.	.	.
16ee	8d-	8B-	8F
16ff	.	.	.
16ee	8d-	8B-	8F
16ff	.	.	.
16ee	8d-	8B-	8F
16ff	.	.	.
16gg	8d-	8B-	8F
16ee	.	.	.
=85	=85	=85	=85
4ff	4c	8A-	4F
.	.	8a-	.
4r	8r	8a-	2.r
.	16cc	8a-	.
.	16ff	.	.
2ddd-	16ee	8b-	.
.	16ff	.	.
.	16ee	8b-	.
.	16ff	.	.
.	16ee	8b-	.
.	16ff	.	.
.	16gg	8b-	.
.	16ee	.	.
=86	=86	=86	=86
4ccc	8ff	8a-	8FF
.	8c	8A-	8F
8r	8c	8A-	8F
16ccc	8c	8A-	8F
16ff	.	.	.
16ee	8d-	8B-	8F
16ff	.	.	.
16ee	8d-	8B-	8F
16ff	.	.	.
16ee	8d-	8B-	8F
16ff	.	.	.
16gg	8d-	8B-	8F
16ee	.	.	.
=87	=87	=87	=87
16ff	4c	4A-	1F
16ccc	.	.	.
16aa-	.	.	.
16ff	.	.	.
16ee	4d-	4B-	.
16ff	.	.	.
16gg	.	.	.
16ee	.	.	.
16ff	4c	4A-	.
16ccc	.	.	.
16aa-	.	.	.
16ff	.	.	.
16ee	4d-	4B-	.
16ff	.	.	.
16gg	.	.	.
16ee	.	.	.
=88	=88	=88	=88
16ff	2c	1A-	1F
16cc	.	.	.
16ff	.	.	.
16gg	.	.	.
16aa-	.	.	.
16bb-	.	.	.
16aa-	.	.	.
16gg	.	.	.
16ff	2d	.	.
16gg	.	.	.
16ff	.	.	.
16ee-	.	.	.
16dd	.	.	.
16ee-	.	.	.
16dd	.	.	.
16cc	.	.	.
=89	=89	=89	=89
16b	1d	1B	1G
16cc	.	.	.
16dd	.	.	.
16ee-	.	.	.
16ff	.	.	.
16ee-	.	.	.
16dd	.	.	.
16cc	.	.	.
16b	.	.	.
16a-	.	.	.
16g	.	.	.
16a-	.	.	.
16g	.	.	.
16f	.	.	.
16e-	.	.	.
16d	.	.	.
=90	=90	=90	=90
4c	8e-	8c	8c
.	8g	8e-	8c
8r	8g	8e-	8c
16gg	8g	8e-	8c
16cc	.	.	.
16b	8a-	8f	8c
16cc	.	.	.
16b	8a-	8f	8c
16cc	.	.	.
16b	8a-	8f	8c
16cc	.	.	.
16dd	8a-	8f	8c
16b	.	.	.
=91	=91	=91	=91
4cc	8g	8e-	8C
.	8g	8e-	8c
8r	8g	8e-	8c
16gg	8g	8e-	8c
16eee-	.	.	.
16ddd	8a-	8f	8c
16ccc	.	.	.
16bb	8a-	8f	8c
16ccc	.	.	.
16bb	8a-	8f	8c
16ccc	.	.	.
16ddd	8a-	8f	8c
16bb	.	.	.
=92	=92	=92	=92
4ccc	8g	8e-	4c
.	8g	8e-	.
8r	8g	8e-	2.r
16gg	8g	8e-	.
16cc	.	.	.
16b	2a-	2f	.
16cc	.	.	.
16b	.	.	.
16cc	.	.	.
16b	.	.	.
16cc	.	.	.
16dd	.	.	.
16b	.	.	.
=93	=93	=93	=93
16cc	4g	4e-	1r
16gg	.	.	.
16ee-	.	.	.
16cc	.	.	.
16b	4a-	4f	.
16cc	.	.	.
16dd	.	.	.
16b	.	.	.
16cc	4g	4e-	.
16gg	.	.	.
16ee-	.	.	.
16cc	.	.	.
16b	4a-	4f	.
16cc	.	.	.
16dd	.	.	.
16b	.	.	.
=94	=94	=94	=94
16cc	2g	2e-	1C
16dd	.	.	.
16ee-	.	.	.
16ff	.	.	.
16ee-	.	.	.
16dd	.	.	.
16cc	.	.	.
16b-	.	.	.
16a	2a	16c	.
16b-	.	16d	.
16cc	.	16e-	.
16dd	.	16f	.
16cc	.	16e-	.
16b-	.	16d	.
16a	.	16c	.
16g	.	16B-	.
=95	=95	=95	=95
16f#	2c	16A	1D
16g	.	16B-	.
16a	.	16c	.
16b-	.	16d	.
16a	.	16c	.
16g	.	16B-	.
16f#	.	16A	.
16e-	.	16G	.
16d	2A	2F#	.
16e-	.	.	.
16d	.	.	.
16e-	.	.	.
16d	.	.	.
16c	.	.	.
16B-	.	.	.
16A	.	.	.
=96	=96	=96	=96
4G	8B-	8G	16GG
.	.	.	16BB-
.	8r	8r	16D
.	.	.	16G
2.r	8a	8d	16F#
.	.	.	16A
.	8r	8r	16F#
.	.	.	16D
.	8b-	8d	16G
.	.	.	16d
.	8r	8r	16B-
.	.	.	16G
.	8cc	8d	16F#
.	.	.	16A
.	8r	8r	16F#
.	.	.	16D
=97	=97	=97	=97
4r	8b-	16G	4G
.	.	16B-	.
.	8r	16d	.
.	.	16g	.
8aa	8dd	16f#	2.r
.	.	16a	.
8r	8r	16f#	.
.	.	16d	.
8bb-	8dd	16g	.
.	.	16dd	.
8r	8r	16b-	.
.	.	16g	.
8ccc	8dd	16f#	.
.	.	16a	.
8r	8r	16f#	.
.	.	16d	.
=98	=98	=98	=98
16bb-	8dd	4g	8GG
16ccc	.	.	.
16ddd	8r	.	8r
16ccc	.	.	.
16bb-	8d	2.r	8BB-
16aa	.	.	.
16gg	8r	.	8r
16ff	.	.	.
16ee-	8g	.	8D
16dd	.	.	.
16cc	8r	.	8r
16b-	.	.	.
16a	8b-	.	8G
16g	.	.	.
16ff#	8r	.	8r
16gg	.	.	.
=99	=99	=99	=99
8ff#	16a	8d	4D
.	16cc	.	.
8r	16ee-	8r	.
.	16dd	.	.
8aa	16cc	8f#	2.r
.	16b-	.	.
8r	16a	8r	.
.	16g	.	.
8ccc	16f#	8a	.
.	16e-	.	.
8r	16d	8r	.
.	16e-	.	.
8ff#	16d	8cc	.
.	16c	.	.
8r	16B-	8r	.
.	16A	.	.
=100	=100	=100	=100
16gg	8B-	8b- 8d	8GG
16bb-	.	.	.
16ddd	8r	2..r	8r
16ccc	.	.	.
16bb-	8d	.	8BB-
16aa	.	.	.
16gg	8r	.	8r
16ff	.	.	.
16ee-	8g	.	8D
16dd	.	.	.
16cc	8r	.	8r
16b-	.	.	.
16a	8b-	.	8G
16g	.	.	.
16f#	8r	.	8r
16g	.	.	.
=101	=101	=101	=101
8a-	16a-	1A- 1e-	1C
.	16cc	.	.
8r	16ee-	.	.
.	16dd-	.	.
8cc	16cc	.	.
.	16b-	.	.
8r	16a-	.	.
.	16g	.	.
8ee-	16f	.	.
.	16e-	.	.
8r	16d-	.	.
.	16c	.	.
8aa-	16B-	.	.
.	16A-	.	.
8r	16G	.	.
.	16A-	.	.
=102	=102	=102	=102
16b	1G	1F	1D 1B
16dd	.	.	.
16ff	.	.	.
16aa-	.	.	.
16gg	.	.	.
16ff	.	.	.
16ee-	.	.	.
16dd	.	.	.
16cc	.	.	.
16b	.	.	.
16dd	.	.	.
16f	.	.	.
16a-	.	.	.
16f	.	.	.
16e-	.	.	.
16d	.	.	.
=103	=103	=103	=103
16e-	8c	8G	8E- 8c
16cc	.	.	.
16cc	8r	8r	8r
16cc	.	.	.
16f	8f	8g	8B
16dd	.	.	.
16dd	8r	8r	8r
16dd	.	.	.
16g	8e-	8g	8c
16ee-	.	.	.
16ee-	8r	8r	8r
16ee-	.	.	.
16b-	8g	8e 8cc	8B-
16ee	.	.	.
16ee	8r	8r	8r
16ee	.	.	.
=104	=104	=104	=104
16a-	8f	8cc 8f	4A-
16cc	.	.	.
16ff	8r	8r	.
16cc	.	.	.
16e	8b-	8e	2.r
16cc	.	.	.
16gg	8r	8r	.
16cc	.	.	.
16f	8a-	8f	.
16cc	.	.	.
16aa-	8r	8r	.
16cc	.	.	.
16e-	8cc 8f	8e-	.
16cc	.	.	.
16aa	8r	8r	.
16cc	.	.	.
=105	=105	=105	=105
16b-	8f 8b-	8d	4r
16bb-	.	.	.
16bb-	8r	8r	.
16bb-	.	.	.
16cc	8ee-	8f	8A
16ccc	.	.	.
16ccc	8r	8r	8r
16ccc	.	.	.
16dd	8dd	8f	8B-
16ddd	.	.	.
16ddd	8r	8r	8r
16ddd	.	.	.
16ee	8b-	8g	8G
16eee	.	.	.
16eee	8r	8r	8r
16eee	.	.	.
=106	=106	=106	=106
8ff	16ff	8a	4F
.	16cc	.	.
8fff	16a	8r	.
.	16cc	.	.
8eee	16b-	8g	4r
.	16cc	.	.
8ggg	16b-	8r	.
.	16cc	.	.
8fff	16a	8a	4F
.	16cc	.	.
8ff	16a	8r	.
.	16cc	.	.
8ee	16b-	8g	4r
.	16cc	.	.
8gg	16b-	8r	.
.	16cc	.	.
=107	=107	=107	=107
16ff	8a	8a	8F
16ccc	.	.	.
16aa	8r	8r	8r
16ff	.	.	.
16ee	8b-	8g	8F
16gg	.	.	.
16ee	8r	8r	8r
16b-	.	.	.
16a	8a	8a	8F
16ccc	.	.	.
16aa	8r	8r	8r
16ff	.	.	.
16ee	8b-	8g	8F
16bb-	.	.	.
16gg	8r	8r	8r
16ee	.	.	.
=108	=108	=108	=108
16ff	4a	4f	4FF
16ee	.	.	.
16gg	.	.	.
16ff	.	.	.
16aa	4r	4r	4r
16gg	.	.	.
16bb-	.	.	.
16aa	.	.	.
16ccc	4a	4f	4F
16bb-	.	.	.
16aa	.	.	.
16bb-	.	.	.
16ccc	4r	4r	4r
16aa	.	.	.
16ddd	.	.	.
16bb-	.	.	.
=109	=109	=109	=109
4.eee-	4cc 4a	8F	4FF
.	.	4f	.
.	4r	.	2.r
8ddd	.	8g	.
8ccc	8f	8a	.
8bb-	8g	8b-	.
8aa	8a	8cc	.
8gg	8b-	8dd	.
=110	=110	=110	=110
8ff	8cc	8ee-	8FF
4eee-	8a	8cc	4F
.	4.f	8a	.
8ddd	.	8b-	8G
8ccc	.	4.cc	8A
8bb-	8g	.	8B-
8aa	8a	.	8c
8gg	8b-	8b-	8d
=111	=111	=111	=111
8ff	8cc	4a	8e-
4eee-	8a	.	8c
.	8f	4r	4A
8ddd	8g	.	.
8ccc	8a	8f	2r
8bb-	8b-	8g	.
8aa	8cc	8a	.
8gg	8dd	8b-	.
=112	=112	=112	=112
1gg-	1ee-	1a	4.r
.	.	.	8FF
.	.	.	8GG-
.	.	.	8GG
.	.	.	8AA-
.	.	.	8AA
=113	=113	=113	=113
2ff	8B-	8D	4BB-
.	8r	8r	.
.	8d	8B-	2.r
.	8r	8r	.
4dd	8f	8d	.
.	4.r	4.r	.
4b-	.	.	.
=114	=114	=114	=114
4.bb-	8f	8D	4BB-
.	8r	8r	.
.	8d	8B-	2.r
16ddd	8r	8r	.
16bb-	.	.	.
4ff	8f	8d	.
.	4r	4.r	.
8r	.	.	.
8dd	8f	.	.
=115	=115	=115	=115
4cc	4e-	2.A	1FF
4b	4d	.	.
4cc	4e-	.	.
4a	4c	4e-	.
=116	=116	=116	=116
8b-	4d	4d	4BB-
8r	.	.	.
8dd	2r	2.r	2.r
8r	.	.	.
4ff	.	.	.
8r	8r	.	.
8dd	8f	.	.
=117	=117	=117	=117
4cc	4e-	4r	2.FF
4b	4d	4A-	.
4cc	4e-	4A	.
4a	4c	4e-	4F#
=118	=118	=118	=118
2.b-	4B-	4d	2.G
.	4A	4c#	.
.	4B-	4d	.
4a-	4f	4B	4D
=119	=119	=119	=119
2a-	2f	4c	2.E-
.	.	4B	.
4g	4e-	4c	.
4b-	4g	4d-	4E
=120	=120	=120	=120
4a	4f	4c	4F
4cc	4a	4e-	4F#
4b-	4g	4d	4G
4ee-	4cc	4f	4A
=121	=121	=121	=121
4dd	4dd	2.f	4B-
8ff	4cc	.	4A
16ee	.	.	.
16ff	.	.	.
4bb-	[2b-	.	4G
4ee	.	4B-	4G-
=122	=122	=122	=122
[1ff	8b-]	4f	2F
.	8a	.	.
.	8dd	4A	.
.	8cc	.	.
.	8b-	4c	2r
.	8a	.	.
.	8g	4A	.
.	8f	.	.
=123	=123	=123	=123
2ff]	2f	1E-	8r
.	.	.	8A
.	.	.	8d
.	.	.	8c
4aa	4c	.	8B-
.	.	.	8A
4ccc	4A	.	8G
.	.	.	8F
=124	=124	=124	=124
2ff	1B-	1D	8r
.	.	.	8B-
.	.	.	8g
.	.	.	8f
4bb-	.	.	8e-
.	.	.	8d
4ddd	.	.	8c
.	.	.	8B-
=125	=125	=125	=125
1ff	8r	2F	1E-
.	8a	.	.
.	8dd	.	.
.	8cc	.	.
.	8b-	4A	.
.	8a	.	.
.	8g	4c	.
.	8f	.	.
=126	=126	=126	=126
[2fff	8r	4B-	2.D
.	8a	.	.
.	8cc	2.r	.
.	8b-	.	.
8fff]	8a	.	.
8eee-	8g	.	.
8ddd	8f	.	4E-
8ccc	8e-	.	.
=127	=127	=127	=127
2.bb-	2.d	2.r	8F
.	.	.	8F#
.	.	.	8A
.	.	.	8G
.	.	.	2F
4ccc	4e-	4A	.
=128	=128	=128	=128
16d	8d	8B-	8BB-
16f	.	.	.
16b-	8r	8r	8r
16dd	.	.	.
16cc	8c 8e-	8a	8BB-
16ee-	.	.	.
16cc	8r	8r	8r
16a	.	.	.
16b-	8B- 8d	8b-	8BB-
16bb-	.	.	.
16ff	8r	8r	8r
16dd	.	.	.
16cc	8e- 8a	8cc	8BB-
16ee-	.	.	.
16cc	8r	8r	8r
16a	.	.	.
=129	=129	=129	=129
16d	8d 8b-	8b-	8BB-
16f	.	.	.
16b-	8r	8r	8r
16dd	.	.	.
16cc	8c 8e-	8a	8BB-
16ee-	.	.	.
16cc	8r	8r	8r
16a	.	.	.
16b-	8B- 8d	8b-	8BB-
16bb-	.	.	.
16ff	8r	8r	8r
16dd	.	.	.
16cc	8e- 8a	8cc	8BB-
16ee-	.	.	.
16cc	8r	8r	8r
16a	.	.	.
=130	=130	=130	=130
4b-	16b-	4b-	1BB-
.	16f	.	.
.	16d	.	.
.	16f	.	.
4dd	16d	4f	.
.	16f	.	.
.	16d	.	.
.	16f	.	.
4ff	16b-	4d	.
.	16f	.	.
.	16d	.	.
.	16f	.	.
4bb-	16d	4B-	.
.	16f	.	.
.	16d	.	.
.	16f	.	.
=131	=131	=131	=131
2ddd	16b-	1dd	1GG
.	16g	.	.
.	16e	.	.
.	16g	.	.
.	16e	.	.
.	16g	.	.
.	16e	.	.
.	16g	.	.
2ee	16b-	.	.
.	16cc	.	.
.	16b-	.	.
.	16cc	.	.
.	16b-	.	.
.	16cc	.	.
.	16b-	.	.
.	16cc	.	.
=132	=132	=132	=132
4ff	4b-	8dd	4BB- 4D 4FF
.	.	16d	.
.	.	16e-	.
2.r	4.r	16f	4r
.	.	16g	.
.	.	16a	.
.	.	16b-	.
.	.	4f	4D 4FF 4BB-
.	16dd	.	.
.	16ee-	.	.
.	16ff	4r	4r
.	16gg	.	.
.	16aa	.	.
.	16bb-	.	.
=133	=133	=133	=133
8r	4ff	1r	4FF 4BB- 4D
16ddd	.	.	.
16ccc	.	.	.
16bb-	2.r	.	2.r
16aa	.	.	.
16gg	.	.	.
16ff	.	.	.
16ee-	.	.	.
16dd	.	.	.
16gg	.	.	.
16ff	.	.	.
16ee-	.	.	.
16dd	.	.	.
16cc	.	.	.
16b-	.	.	.
=134	=134	=134	=134
8a	1c 1e-	1A	1FF
8ee-	.	.	.
8cc	.	.	.
8a	.	.	.
8f	.	.	.
8e-	.	.	.
8c	.	.	.
8A	.	.	.
=135	=135	=135	=135
8B-	8d	8B-	8BB-
8b-	8r	8r	8r
8r	8cc	8A	8FF
8cc	8r	8r	8r
8r	8dd	8B-	4BB-
8dd	8r	8r	.
16r	8a	8f	4r
16cc	.	.	.
16b	8r	8r	.
16cc	.	.	.
=136	=136	=136	=136
16r	8b-	4B-	1r
16dd	.	.	.
16cc#	8r	.	.
16dd	.	.	.
16r	8cc	2.r	.
16ee-	.	.	.
16dd	8r	.	.
16ee-	.	.	.
16ff	8dd	.	.
16gg	.	.	.
16aa	4.r	.	.
16bb-	.	.	.
16aa	.	.	.
16bb-	.	.	.
16aa	.	.	.
16bb-	.	.	.
=137	=137	=137	=137
2gg	4ee-	16B-	2r
.	.	16c	.
.	.	16d	.
.	.	16e-	.
.	4b-	16d	.
.	.	16e-	.
.	.	16d	.
.	.	16e-	.
2aa	4ee-	4F	16C
.	.	.	16D
.	.	.	16E-
.	.	.	16F
.	4cc	4f	16E-
.	.	.	16F
.	.	.	16E-
.	.	.	16F
=138	=138	=138	=138
16bb-	8b-	8f	8D
16ff	.	.	.
16ee	8r	8r	8r
16ff	.	.	.
16ff	8cc	8f	8A
16ee-	.	.	.
16dd	8r	8r	8r
16ee-	.	.	.
16dd	8dd	8f	8B-
16b-	.	.	.
16bb-	8r	8r	8r
16gg	.	.	.
16ff	8a	8e-	8F
16dd	.	.	.
16ee-	8r	8r	8r
16cc	.	.	.
=139	=139	=139	=139
16dd	8b-	8d	8BB-
16b-	.	.	.
16bb-	8r	8r	8r
16gg	.	.	.
16ff	8cc	8f	8A
16dd	.	.	.
16ee-	8r	8r	8r
16cc	.	.	.
16dd	8dd	8f	8B-
16b-	.	.	.
16bb-	8r	8r	8r
16gg	.	.	.
16ff	8a	8e-	8F
16dd	.	.	.
16ee-	8r	8r	8r
16cc	.	.	.
=140	=140	=140	=140
8dd	8b-	4d	4BB-
8bb-	8dd	.	.
8ddd	8ff	4.r	4.r
8bb-	8dd	.	.
4ddd	4ff	.	.
.	.	8b-	8d
4r	4r	8dd	8f
.	.	8b-	8d
=141	=141	=141	=141
8r	8r	4dd	4f
8ddd	8bb-	.	.
8fff	8ddd	2.r	2.r
8ddd	8bb-	.	.
4fff	4ddd	.	.
4r	4r	.	.
=142	=142	=142	=142
1ggg	1dd-	1b-	1e
=143	=143	=143	=143
1a	1e-	1F	1c
=144	=144	=144	=144
4b-	8d	8B-	4B-
.	16dd	16b-	.
.	16cc	16a	.
2r	16b-	16g	2r
.	16a	16f	.
.	16g	16e-	.
.	16f	16d	.
.	16e-	16c	.
.	16d	16B-	.
.	16c	16A	.
.	16B-	16G	.
8.ee-	8.A	8F	4FF
.	.	8c	.
16a	16e-	.	.
=145	=145	=145	=145
8b-	4d	4d	4BB-
16B-	.	.	.
16A	.	.	.
16B-	2.r	2.r	2.r
16c	.	.	.
16d	.	.	.
16e-	.	.	.
16f	.	.	.
16g	.	.	.
16a	.	.	.
16b-	.	.	.
16cc	.	.	.
16dd	.	.	.
16ee-	.	.	.
16ff	.	.	.
=146	=146	=146	=146
1gg	1c	1B-	2EE-
.	.	.	4.EE
.	.	.	16DD
.	.	.	16EE
=147	=147	=147	=147
2ff	8d	8B-	2FF
.	8r	8r	.
.	8d	8B-	.
.	16c	16A	.
.	16d	16B-	.
4dd	4f	4d	2r
4b-	4r	4r	.
=148	=148	=148	=148
4.bb-	8f	8d	2FF
.	8r	8r	.
.	8d	8B-	.
16ddd	16c	16A	.
16bb-	16d	16B-	.
4ff	4f	4d	2r
8r	8r	4r	.
8dd	8f	.	.
=149	=149	=149	=149
4cc	4e-	2F	2..r
4b	4d	.	.
4cc	4e-	4.r	.
4a	4c	.	.
.	.	8e-	8F
=150	=150	=150	=150
4b-	4B-	4f	4d
2r	2r	4e	4c#
.	.	4f	4d
8r	8r	4d	4B-
8dd	8f	.	.
=151	=151	=151	=151
12cc	4e-	4r	1F
12dd	.	.	.
12cc	.	.	.
12b	4d	4A-	.
12cc	.	.	.
12b	.	.	.
12cc	4e-	4A	.
12dd	.	.	.
12ee-	.	.	.
12a	4c	4E-	.
12b-	.	.	.
12cc	.	.	.
=152	=152	=152	=152
4b-	4d	4D	4BB-
4r	4r	4r	4r
4cc	2a	2e-	2F
8.cc	.	.	.
16dd	.	.	.
=153	=153	=153	=153
4b-	4b-	4d	4B-
4r	4r	4r	4r
2gg	4cc	2a	4e-
.	8.cc	.	8.e-
.	16a	.	16f
=154	=154	=154	=154
4ff	4dd	4b-	4d
4r	4r	4r	4r
4aa 4cc 4f	4ee- 4f	4f 4cc	4F
4r	4r	4r	4r
=155	=155	=155	=155
4bb- 4b- 4d	4dd 4f 4B-	4b- 4B- 4d	4BB- 4B- 4D
2.r	2.r	2.r	2.r
==	==	==	==
*	*-	*-	*-
!!!RWG1: This file contains only pitch and duration data.
!!!RWG2: Transposing instruments are not transposed.
!!!RWG3: Spines may have incompatible meters.
!!!RWG4: Durations of rests and tied notes may be interpreted.
!!!RWG1: This file contains only pitch and duration data.
!!!RWG2: Transposing instruments are not transposed.
!!!RWG3: Spines may have incompatible meters.
!!!RWG4: Durations of rests and tied notes may be interpreted.
!!!RWG: Key is interpreted using the Humdrum key tool.
!!!GTL: 6 Quartetti ("Apponyi")
!!!AFT: stage1
!!!END: 1997/04/15
!!format changes:
!!content changes:
!!public access: complete
!!!KEY: 1711931284
!!!EMD: Converted from MuseData to Humdrum Dec 16, 2000, by Andreas Kornstaedt using muse2kern.
